media/icons/block1/Освещение.svg

<svg width="63" height="63" viewBox="0 0 63 63" fill="none" xmlns="http://www.w3.org/2000/svg">
<path d="M25.5937 57.0937H37.4062V61.0312H25.5937V57.0937ZM23.625 51.1875H39.375V55.125H23.625V51.1875ZM45.456 7.7138C41.756 4.00886 36.7996 1.96874 31.5 1.96874C28.9129 1.96258 26.35 2.4676 23.9586 3.45481C21.5672 4.44201 19.3945 5.89195 17.5651 7.72133C15.7357 9.55071 14.2858 11.7235 13.2986 14.1149C12.3114 16.5063 11.8063 19.0691 11.8125 21.6562C11.8125 27.3927 14.0113 32.7588 17.8418 36.3776L18.3783 36.8808C20.5944 38.9529 23.625 41.7916 23.625 44.2969V49.2187H29.5312V33.1131L24.0827 30.0234L26.332 26.7898L31.5 29.5312L36.5806 26.7762L38.9308 29.9361L33.4687 33.1353V49.2187H39.375V44.2969C39.375 41.8507 42.3724 39.0145 44.5614 36.9424L45.1656 36.369C49.1055 32.6074 51.1875 27.5145 51.1875 21.6562C51.2005 19.0689 50.7007 16.5046 49.717 14.1115C48.7332 11.7184 47.285 9.54394 45.456 7.7138Z" fill="#378BC5"/>
</svg>

<svg xmlns="http://www.w3.org/2000/svg" width="63" height="63" fill="none" viewBox="0 0 63 63"><path fill="#378bc5" d="M25.594 57.094h11.812v3.937H25.594zm-1.969-5.907h15.75v3.938h-15.75zM45.456 7.715C41.756 4.009 36.8 1.969 31.5 1.969a19.64 19.64 0 0 0-19.687 19.687c0 5.737 2.198 11.103 6.029 14.722l.536.503c2.216 2.072 5.247 4.91 5.247 7.416v4.922h5.906V33.113l-5.448-3.09 2.249-3.233 5.168 2.74 5.08-2.755 2.35 3.16-5.461 3.2v16.083h5.906v-4.922c0-2.446 2.997-5.282 5.186-7.355l.605-.573c3.94-3.762 6.022-8.854 6.022-14.713a19.6 19.6 0 0 0-5.732-13.942"/></svg>
